X:93
T:Hornpipe. RHu.093
S:R.Hughes MS,1823,Whitchurch,Shrops.
A:Whitchurch , Shropshire
Z:Neil Brookes 2006
M:4/4
L:1/8
Q:1/2=90
R:.Hornpipe
K:G
DE/F/|G2G2G2Bc|dBdg dBAG|eccB dBAG|FGAB A2 DE/F/|!
G2G2G2Bc|dBdg dBAG|edcB cBAG|D2G2G2::!
Bc|dBdg dBdg|eceg eceg|edcB cBAG|FGAB A2 Bc|!
dBdg dBdg|eceg eceg|gfed cBAG|D2G2G2:|

